packages/icons/src/text.svg

<svg fill="none" viewBox="0 0 16 19" xmlns="http://www.w3.org/2000/svg"><path d="m11.5852 18.3335h-7.11864v-.6667c.37156-.1351 1.91689-1.0084 2.356-1.076v-14.92397h-3.876l-1.64667 3.47333h-.633328c-.050667-.33778 0-4.468884 0-4.806664h14.718638c0 .33778.0507 4.451994 0 4.806664h-.6586l-1.596-3.47333h-3.87604v14.92397c.43912.0845 1.97604.924 2.33064 1.076z" fill="#3e7bfa"/></svg>

<svg viewBox="0 0 16 19" fill="none" xmlns="http://www.w3.org/2000/svg">
<path d="M11.5852 18.3335H4.46656V17.6668C4.83812 17.5317 6.38345 16.6584 6.82256 16.5908V1.66683H2.94656L1.29989 5.14016H0.666562C0.615895 4.80238 0.666562 0.671276 0.666562 0.333496L15.3852 0.333496C15.3852 0.671276 15.4359 4.78549 15.3852 5.14016H14.7266L13.1306 1.66683H9.25456V16.5908C9.69368 16.6753 11.2306 17.5148 11.5852 17.6668V18.3335Z" fill="#3E7BFA"/>
</svg>
